packages/tokens/icons/thumbsDownFilled/size24Px.svg

<svg viewBox="0 0 24 24" fill="none" xmlns="http://www.w3.org/2000/svg" width="1em" height="1em"><path fill-rule="evenodd" clip-rule="evenodd" d="M7.73257 14.9996C7.3868 15.5975 6.74038 15.9998 6 15.9998H3C2.44772 15.9998 2 15.5521 2 14.9998L2 5.99979C2 5.4475 2.44772 4.99979 3 4.99979H6C6.70947 4.99979 7.33266 5.3692 7.68771 5.92617L10.5935 5.09613C10.8167 5.03236 11.0478 5 11.2799 4.99998L14.6457 4.99973C14.6494 4.99958 14.653 4.99947 14.6567 4.9994C14.66 4.99933 14.6634 4.9993 14.6667 4.9993H18.25C19.2165 4.9993 20 5.7828 20 6.7493C20 7.05145 19.9234 7.33572 19.7886 7.58375C20.4916 7.81091 21 8.47073 21 9.2493C21 9.62758 20.88 9.97783 20.6759 10.264C21.1708 10.5732 21.5 11.1228 21.5 11.7493C21.5 12.1276 21.38 12.4778 21.1759 12.764C21.6708 13.0732 22 13.6228 22 14.2493C22 15.2158 21.2165 15.9993 20.25 15.9993L14.1937 15.9993L14.5023 16.9255C14.8465 17.9582 14.7663 19.0854 14.2794 20.059L14.2303 20.1573C13.9721 20.6735 13.4444 20.9996 12.8673 20.9995C12.1224 20.9995 11.4868 20.461 11.3643 19.7262L11.2228 18.8774C11.0921 18.0933 10.7965 17.3459 10.3555 16.6844L9.23239 14.9998L7.73257 14.9996Z" fill="currentColor"/></svg>

<svg xmlns="http://www.w3.org/2000/svg" fill="none" viewBox="0 0 24 24" width="1em" height="1em"><path fill="currentColor" fill-rule="evenodd" d="M7.733 15A2 2 0 0 1 6 16H3a1 1 0 0 1-1-1V6a1 1 0 0 1 1-1h3a2 2 0 0 1 1.688.926l2.906-.83A2.5 2.5 0 0 1 11.28 5h3.366a.505.505 0 0 1 .02 0h3.584a1.75 1.75 0 0 1 1.539 2.584 1.75 1.75 0 0 1 .887 2.68 1.749 1.749 0 0 1 .5 2.5 1.749 1.749 0 0 1-.926 3.235h-6.056l.308.926a4.104 4.104 0 0 1-.223 3.134l-.049.098a1.524 1.524 0 0 1-2.866-.43l-.141-.85a5.619 5.619 0 0 0-.868-2.193L9.232 15h-1.5Z" clip-rule="evenodd"/></svg>
